apps/scalable/lightworks.svg

<svg xmlns="http://www.w3.org/2000/svg" style="isolation:isolate" width="256" height="256"><defs><filter id="a" width="270.648" height="254.338" x="-7.32" y="2.95" filterUnits="userSpaceOnUse"><feGaussianBlur xmlns="http://www.w3.org/2000/svg" in="SourceGraphic" stdDeviation="4.294"/><feOffset xmlns="http://www.w3.org/2000/svg" dy="4" result="pf_100_offsetBlur"/><feFlood xmlns="http://www.w3.org/2000/svg" flood-opacity=".4"/><feComposite xmlns="http://www.w3.org/2000/svg" in2="pf_100_offsetBlur" operator="in" result="pf_100_dropShadow"/><feBlend xmlns="http://www.w3.org/2000/svg" in="SourceGraphic" in2="pf_100_dropShadow"/></filter></defs><path fill="#3B3B3B" d="M165.685 11.947c74.055 0 84.639 10.557 84.639 84.544v59.251c0 73.986-10.584 84.543-84.639 84.543h-75.37c-74.055 0-84.639-10.557-84.639-84.543V96.491c0-73.987 10.584-84.544 84.639-84.544h75.37z" filter="url(#a)"/><path fill="gray" d="M190.966 12.568c51.295 3.09 59.358 19.345 59.358 83.923v59.251c0 64.336-8.003 80.71-58.785 83.887-1.069 2.478-1.489-225.5-.573-227.061zM65 239.662c-51.265-3.095-59.324-19.357-59.324-83.92V96.491c0-64.578 8.063-80.833 59.358-83.923-.027-.605-.042 227.402-.034 227.094z"/><g opacity=".4"><linearGradient id="b" x1=".517" x2=".517" y2="1"><stop offset="0%" stop-color="#fff"/><stop offset="12.5%" stop-opacity=".098" stop-color="#fff"/><stop offset="92.5%" stop-opacity=".098"/><stop offset="100%" stop-opacity=".498"/></linearGradient><path fill="none" stroke="url(#b)" stroke-linecap="round" stroke-linejoin="round" stroke-width="4.077" d="M165.685 11.947c74.055 0 84.639 10.557 84.639 84.544v59.251c0 73.986-10.584 84.543-84.639 84.543h-75.37c-74.055 0-84.639-10.557-84.639-84.543V96.491c0-73.987 10.584-84.544 84.639-84.544h75.37z" vector-effect="non-scaling-stroke"/></g><g opacity=".6"><linearGradient id="c" x1="1" x2="1" y1=".5" y2=".018" gradientTransform="matrix(198.291 0 0 181.197 28.855 36.382)" gradientUnits="userSpaceOnUse"><stop offset="0%" stop-opacity=".972" stop-color="#fff"/><stop offset="64.572%" stop-opacity=".916" stop-color="#fff"/><stop offset="100%" stop-opacity="0" stop-color="#fff"/></linearGradient><path fill="url(#c)" d="M224.059 36.382a27.33 27.33 0 0 1 3.086 3.239v7.018h-17.094V36.382h14.008zm-178.11 0v10.257H28.855v-7.018a27.33 27.33 0 0 1 3.086-3.239h14.008zm181.196 17.094v10.257h-17.094V53.476h17.094zm-181.196 0v10.257H28.855V53.476h17.094zM227.145 70.57v10.257h-17.094V70.57h17.094zm-181.196 0v10.257H28.855V70.57h17.094zm181.196 17.094v10.257h-17.094V87.664h17.094zm-181.196 0v10.257H28.855V87.664h17.094zm181.196 17.094v10.257h-17.094v-10.257h17.094zm-181.196 0v10.257H28.855v-10.257h17.094zm181.196 17.094v10.257h-17.094v-10.257h17.094zm-181.196 0v10.257H28.855v-10.257h17.094zm181.196 17.094v10.257h-17.094v-10.257h17.094zm-181.196 0v10.257H28.855v-10.257h17.094zm181.196 17.094v10.257h-17.094V156.04h17.094zm-181.196 0v10.257H28.855V156.04h17.094zm181.196 17.094v10.257h-17.094v-10.257h17.094zm-181.196 0v10.257H28.855v-10.257h17.094zm181.196 17.094v10.257h-17.094v-10.257h17.094zm-181.196 0v10.257H28.855v-10.257h17.094zm181.196 17.095v7.017a27.33 27.33 0 0 1-3.086 3.239h-14.008v-10.256h17.094zm-181.196 0v10.256H31.941a27.33 27.33 0 0 1-3.086-3.239v-7.017h17.094z"/></g><path fill-rule="evenodd" d="M214.659 173.484l-2.487 16.484-12.205-8.627-.577 19.165-16.024-11.308-2.296 21.276-17.355-14.952-4.967 17.448-13.738-15.915-8.2 13.611-7.061-16.292-6.056 12.247c.751.802 1.53 1.49 2.295 2.244 1.908 1.48 4.146 2.756 4.146 2.756s24.799 11.502 57.235.386c16.455-5.64 32.706-20.059 44.881-32.978-.468-.184-.865-.396-1.374-.561l-16.217-4.984z"/><ellipse rx="1" ry="1" transform="matrix(16.46 0 0 16.533 209.498 99.418)" vector-effect="non-scaling-stroke" opacity=".2"/><ellipse rx="1" ry="1" transform="matrix(4.049 0 0 4.066 201.941 91.827)" vector-effect="non-scaling-stroke" opacity=".2"/><path fill="#3F3F3F" fill-rule="evenodd" d="M250.287 157.159c.001-.569.037-.975.037-1.552v-24.588c-23.879 12.633-47.561 20.806-68.09 26.047-.869.261-1.84.598-2.679.838-27.524 7.86-46.959 36.162-46.959 36.162l-1.524 13.619c2.47 1.074 25.599 10.554 56.297.033 29.082-9.967 57.176-43.181 62.918-50.559z"/><path fill="#FFF" fill-rule="evenodd" d="M221.754 143.673l-.335.051c-59.62 10.932-101.78 15.641-101.78 15.641s-19.156 6.175-36.245 2.545l17.088 24.843 5.394-15.454 11.878 17.079 8.359-17.624 18.889 18.705 6.751-21.41 17.808 17.079 8.636-23.311 13.495 14.633 8.359-21.41 14.843 10.295 6.475-20.506.385-1.156z"/><path fill="#FFF" fill-rule="evenodd" d="M214.659 169.196l-2.487 16.485-12.205-8.628-.577 19.165-16.024-11.308-2.296 21.276-17.355-14.952-4.967 17.448-13.738-15.915-8.2 13.612-7.061-16.292-6.056 12.246c.751.802-1.932 4.952-1.167 5.707 1.908 1.479.684 5.229.684 5.229s35.185 12.986 67.622 1.869c16.454-5.64 32.705-26.983 44.88-39.902-.468-.184-4.327-.891-4.836-1.056l-16.217-4.984z"/><path fill="#F76363" d="M242.877 215.216c.058-.125.136-.222.193-.348.961-2.115 1.805-4.4 2.541-6.869.737-2.469 1.365-5.122 1.903-7.97.537-2.849.981-5.893 1.345-9.147.365-3.254.649-6.716.866-10.4.421-7.163.573-15.243.582-24.178-4.239 4.81-52.595 58.642-100.905 60.109-10.743.185-20.225-4.923-25.716-14.074 0 0-4.316.673-3.506 6.637 4.139 21.144 39.791 24.477 48.513 24.594 18.035-.053 42.307-4.741 74.184-18.354zM250.324 132.234V96.355c0-9.249-.166-17.506-.599-24.875a198 198 0 0 0-.866-10.401c-.364-3.253-.808-6.298-1.345-9.146-.538-2.849-1.166-5.502-1.903-7.971-.736-2.469-1.58-4.753-2.541-6.869a39.484 39.484 0 0 0-3.252-5.85 33.271 33.271 0 0 0-4.045-4.906 33.279 33.279 0 0 0-4.91-4.037 39.65 39.65 0 0 0-5.857-3.25c-2.118-.96-4.405-1.8-6.877-2.535-1.84-.547-3.891-.979-5.94-1.414-29.948 9.91-109.963 36.994-143.808 55.097-41.555 22.228-42.203 30.349-37.346 42.276 4.857 11.927 19.529 18.356 27.084 36.246 7.556 17.89 61.522 16.23 61.522 16.23s64.663 2.172 130.683-32.716z"/><circle fill="#3F3F3F" r="1" transform="translate(208.974 96.33) scale(17.155)" vector-effect="non-scaling-stroke"/><circle fill="#F8FCF9" r="1" transform="translate(202.541 89.897) scale(6.433)" vector-effect="non-scaling-stroke"/></svg>

<svg xmlns="http://www.w3.org/2000/svg" style="isolation:isolate" width="256" height="256" viewBox="0 0 256 256">
 <defs>
  <filter id="3gseKwqC8ZRW1hzBW8lh2C9fA1iO3SBK" width="270.648" height="254.338" x="-7.32" y="2.95" filterUnits="userSpaceOnUse">
   <feGaussianBlur xmlns="http://www.w3.org/2000/svg" in="SourceGraphic" stdDeviation="4.294"/>
   <feOffset xmlns="http://www.w3.org/2000/svg" dx="0" dy="4" result="pf_100_offsetBlur"/>
   <feFlood xmlns="http://www.w3.org/2000/svg" flood-opacity=".4"/>
   <feComposite xmlns="http://www.w3.org/2000/svg" in2="pf_100_offsetBlur" operator="in" result="pf_100_dropShadow"/>
   <feBlend xmlns="http://www.w3.org/2000/svg" in="SourceGraphic" in2="pf_100_dropShadow" mode="normal"/>
  </filter>
 </defs>
 <g filter="url(#3gseKwqC8ZRW1hzBW8lh2C9fA1iO3SBK)">
  <path fill="#3B3B3B" d="M 165.685 11.947 C 239.74 11.947 250.324 22.504 250.324 96.491 L 250.324 155.742 C 250.324 229.728 239.74 240.285 165.685 240.285 L 90.315 240.285 C 16.26 240.285 5.676 229.728 5.676 155.742 L 5.676 96.491 C 5.676 22.504 16.26 11.947 90.315 11.947 L 165.685 11.947 Z"/>
 </g>
 <path fill="#808080" d="M 190.966 12.568 C 242.261 15.658 250.324 31.913 250.324 96.491 L 250.324 155.742 C 250.324 220.078 242.321 236.452 191.539 239.629 C 190.47 242.107 190.05 14.129 190.966 12.568 Z"/>
 <path fill="#808080" d="M 65 239.662 C 13.735 236.567 5.676 220.305 5.676 155.742 L 5.676 96.491 C 5.676 31.913 13.739 15.658 65.034 12.568 C 65.007 11.963 64.992 239.97 65 239.662 Z"/>
 <g opacity=".4">
  <linearGradient id="_lgradient_280" x1=".517" x2=".517" y1="0" y2="1">
   <stop offset="0%" style="stop-color:rgb(255,255,255)"/>
   <stop offset="12.5%" stop-opacity=".098" style="stop-color:rgb(255,255,255)"/>
   <stop offset="92.5%" stop-opacity=".098" style="stop-color:rgb(0,0,0)"/>
   <stop offset="100%" stop-opacity=".498" style="stop-color:rgb(0,0,0)"/>
  </linearGradient>
  <path fill="none" stroke="url(#_lgradient_280)" stroke-linecap="round" stroke-linejoin="round" stroke-width="4.077" d="M 165.685 11.947 C 239.74 11.947 250.324 22.504 250.324 96.491 L 250.324 155.742 C 250.324 229.728 239.74 240.285 165.685 240.285 L 90.315 240.285 C 16.26 240.285 5.676 229.728 5.676 155.742 L 5.676 96.491 C 5.676 22.504 16.26 11.947 90.315 11.947 L 165.685 11.947 Z" vector-effect="non-scaling-stroke"/>
 </g>
 <g opacity=".6">
  <linearGradient id="_lgradient_281" x1="1" x2="1" y1=".5" y2=".018" gradientTransform="matrix(198.291,0,0,181.197,28.855,36.382)" gradientUnits="userSpaceOnUse">
   <stop offset="0%" stop-opacity=".972" style="stop-color:rgb(255,255,255)"/>
   <stop offset="64.572%" stop-opacity=".916" style="stop-color:rgb(255,255,255)"/>
   <stop offset="100%" stop-opacity="0" style="stop-color:rgb(255,255,255)"/>
  </linearGradient>
  <path fill="url(#_lgradient_281)" d="M 224.059 36.382 C 225.174 37.375 226.201 38.453 227.145 39.621 L 227.145 46.639 L 210.051 46.639 L 210.051 36.382 L 224.059 36.382 Z M 45.949 36.382 L 45.949 46.639 L 28.855 46.639 L 28.855 39.621 C 29.799 38.453 30.826 37.375 31.941 36.382 L 45.949 36.382 Z M 227.145 53.476 L 227.145 63.733 L 210.051 63.733 L 210.051 53.476 L 227.145 53.476 Z M 45.949 53.476 L 45.949 63.733 L 28.855 63.733 L 28.855 53.476 L 45.949 53.476 Z M 227.145 70.57 L 227.145 80.827 L 210.051 80.827 L 210.051 70.57 L 227.145 70.57 Z M 45.949 70.57 L 45.949 80.827 L 28.855 80.827 L 28.855 70.57 L 45.949 70.57 Z M 227.145 87.664 L 227.145 97.921 L 210.051 97.921 L 210.051 87.664 L 227.145 87.664 Z M 45.949 87.664 L 45.949 97.921 L 28.855 97.921 L 28.855 87.664 L 45.949 87.664 Z M 227.145 104.758 L 227.145 115.015 L 210.051 115.015 L 210.051 104.758 L 227.145 104.758 Z M 45.949 104.758 L 45.949 115.015 L 28.855 115.015 L 28.855 104.758 L 45.949 104.758 Z M 227.145 121.852 L 227.145 132.109 L 210.051 132.109 L 210.051 121.852 L 227.145 121.852 Z M 45.949 121.852 L 45.949 132.109 L 28.855 132.109 L 28.855 121.852 L 45.949 121.852 Z M 227.145 138.946 L 227.145 149.203 L 210.051 149.203 L 210.051 138.946 L 227.145 138.946 Z M 45.949 138.946 L 45.949 149.203 L 28.855 149.203 L 28.855 138.946 L 45.949 138.946 Z M 227.145 156.04 L 227.145 166.297 L 210.051 166.297 L 210.051 156.04 L 227.145 156.04 Z M 45.949 156.04 L 45.949 166.297 L 28.855 166.297 L 28.855 156.04 L 45.949 156.04 Z M 227.145 173.134 L 227.145 183.391 L 210.051 183.391 L 210.051 173.134 L 227.145 173.134 Z M 45.949 173.134 L 45.949 183.391 L 28.855 183.391 L 28.855 173.134 L 45.949 173.134 Z M 227.145 190.228 L 227.145 200.485 L 210.051 200.485 L 210.051 190.228 L 227.145 190.228 Z M 45.949 190.228 L 45.949 200.485 L 28.855 200.485 L 28.855 190.228 L 45.949 190.228 Z M 227.145 207.323 L 227.145 214.34 C 226.201 215.508 225.174 216.586 224.059 217.579 L 210.051 217.579 L 210.051 207.323 L 227.145 207.323 Z M 45.949 207.323 L 45.949 217.579 L 31.941 217.579 C 30.826 216.586 29.799 215.508 28.855 214.34 L 28.855 207.323 L 45.949 207.323 Z"/>
 </g>
 <g>
  <path fill-rule="evenodd" d="M 214.659 173.484 L 212.172 189.968 L 199.967 181.341 L 199.39 200.506 L 183.366 189.198 L 181.07 210.474 L 163.715 195.522 L 158.748 212.97 L 145.01 197.055 L 136.81 210.666 L 129.749 194.374 L 123.693 206.621 C 124.444 207.423 125.223 208.111 125.988 208.865 C 127.896 210.345 130.134 211.621 130.134 211.621 C 130.134 211.621 154.933 223.123 187.369 212.007 C 203.824 206.367 220.075 191.948 232.25 179.029 C 231.782 178.845 231.385 178.633 230.876 178.468 L 214.659 173.484 Z"/>
  <g opacity=".2">
   <ellipse cx="0" cy="0" rx="1" ry="1" transform="matrix(16.46,0,0,16.533,209.498,99.418)" vector-effect="non-scaling-stroke"/>
  </g>
  <g opacity=".2">
   <ellipse cx="0" cy="0" rx="1" ry="1" transform="matrix(4.049,0,0,4.066,201.941,91.827)" vector-effect="non-scaling-stroke"/>
  </g>
  <path fill="#3F3F3F" fill-rule="evenodd" d="M 250.287 157.159 C 250.288 156.59 250.324 156.184 250.324 155.607 L 250.324 136.019 L 250.324 131.019 C 226.445 143.652 202.763 151.825 182.234 157.066 C 181.365 157.327 180.394 157.664 179.555 157.904 C 152.031 165.764 132.596 194.066 132.596 194.066 L 131.072 207.685 C 133.542 208.759 156.671 218.239 187.369 207.718 C 216.451 197.751 244.545 164.537 250.287 157.159 Z"/>
  <path fill="#FFFFFF" fill-rule="evenodd" d="M 221.754 143.673 C 221.754 143.673 221.421 143.723 221.419 143.724 C 161.799 154.656 119.639 159.365 119.639 159.365 C 119.639 159.365 100.483 165.54 83.394 161.91 L 100.482 186.753 L 105.876 171.299 L 117.754 188.378 L 126.113 170.754 L 145.002 189.459 L 151.753 168.049 L 169.561 185.128 L 178.197 161.817 L 191.692 176.45 L 200.051 155.04 L 214.894 165.335 L 221.369 144.829 L 221.754 143.673 Z"/>
  <path fill="#FFFFFF" fill-rule="evenodd" d="M 214.659 169.196 L 212.172 185.681 L 199.967 177.053 L 199.39 196.218 L 183.366 184.91 L 181.07 206.186 L 163.715 191.234 L 158.748 208.682 L 145.01 192.767 L 136.81 206.379 L 129.749 190.087 L 123.693 202.333 C 124.444 203.135 121.761 207.285 122.526 208.04 C 124.434 209.519 123.21 213.269 123.21 213.269 C 123.21 213.269 158.395 226.255 190.832 215.138 C 207.286 209.498 223.537 188.155 235.712 175.236 C 235.244 175.052 231.385 174.345 230.876 174.18 L 214.659 169.196 Z"/>
  <path fill="#F76363" d="M 242.877 215.216 C 242.935 215.091 243.013 214.994 243.07 214.868 C 244.031 212.753 244.875 210.468 245.611 207.999 C 246.348 205.53 246.976 202.877 247.514 200.029 C 248.051 197.18 248.495 194.136 248.859 190.882 C 249.224 187.628 249.508 184.166 249.725 180.482 C 250.146 173.319 250.298 165.239 250.307 156.304 C 246.068 161.114 197.712 214.946 149.402 216.413 C 138.659 216.598 129.177 211.49 123.686 202.339 C 123.686 202.339 119.37 203.012 120.18 208.976 C 124.319 230.12 159.971 233.453 168.693 233.57 C 186.728 233.517 211 228.829 242.877 215.216 Z"/>
  <path fill="#F76363" d="M 250.324 132.234 L 250.324 96.355 C 250.324 87.106 250.158 78.849 249.725 71.48 C 249.508 67.795 249.224 64.333 248.859 61.079 C 248.495 57.826 248.051 54.781 247.514 51.933 C 246.976 49.084 246.348 46.431 245.611 43.962 C 244.875 41.493 244.031 39.209 243.07 37.093 C 242.109 34.977 241.03 33.031 239.818 31.243 C 238.607 29.455 237.262 27.824 235.773 26.337 C 234.285 24.851 232.654 23.51 230.863 22.3 C 229.073 21.09 227.124 20.01 225.006 19.05 C 222.888 18.09 220.601 17.25 218.129 16.515 C 216.289 15.968 214.238 15.536 212.189 15.101 C 182.241 25.011 102.226 52.095 68.381 70.198 C 26.826 92.426 26.178 100.547 31.035 112.474 C 35.892 124.401 50.564 130.83 58.119 148.72 C 65.675 166.61 119.641 164.95 119.641 164.95 C 119.641 164.95 184.304 167.122 250.324 132.234 Z"/>
  <circle fill="#3F3F3F" cx="0" cy="0" r="1" transform="matrix(17.155,0,0,17.155,208.974,96.33)" vector-effect="non-scaling-stroke"/>
  <circle fill="#F8FCF9" cx="0" cy="0" r="1" transform="matrix(6.433,0,0,6.433,202.541,89.897)" vector-effect="non-scaling-stroke"/>
 </g>
</svg>
